icons/serverless.svg

<!--
  - The MIT License (MIT)
  -
  - Copyright (c) 2015-2024 Elior "Mallowigi" Boukhobza
  -
  - Permission is hereby granted, free of charge, to any person obtaining a copy
  - of this software and associated documentation files (the "Software"), to deal
  - in the Software without restriction, including without limitation the rights
  - to use, copy, modify, merge, publish, distribute, sublicense, and/or sell
  - copies of the Software, and to permit persons to whom the Software is
  - furnished to do so, subject to the following conditions:
  -
  - The above copyright notice and this permission notice shall be included in all
  - copies or substantial portions of the Software.
  -
  - THE SOFTWARE IS PROVIDED "AS IS", WITHOUT WARRANTY OF ANY KIND, EXPRESS OR
  - IMPLIED, INCLUDING BUT NOT LIMITED TO THE WARRANTIES OF MERCHANTABILITY,
  - FITNESS FOR A PARTICULAR PURPOSE AND NONINFRINGEMENT. IN NO EVENT SHALL THE
  - AUTHORS OR COPYRIGHT HOLDERS BE LIABLE FOR ANY CLAIM, DAMAGES OR OTHER
  - LIABILITY, WHETHER IN AN ACTION OF CONTRACT, TORT OR OTHERWISE, ARISING FROM,
  - OUT OF OR IN CONNECTION WITH THE SOFTWARE OR THE USE OR OTHER DEALINGS IN THE
  - SOFTWARE.
  -
  -->

<svg version="1.1" xmlns="http://www.w3.org/2000/svg" viewBox="0 0 512 512" width="16px" height="16px">
  <path fill="#F55750" data-iconColor="Serverless"
        d="m0-0.001953125v106.61718h169.30469l28.07617-106.61718h-197.38086zm286.69922 0-28.07617 106.61718h253.37695v-106.61718h-225.30078zm-286.69922 202.69531v106.61133h115.92578l28.07617-106.61133h-144.00195zm233.32227 0-28.07618 106.61133h306.75391v-106.61133h-278.67773zm-233.32227 202.69336v106.61133h62.544922l28.080078-106.61133h-90.625zm179.94141 0-28.07618 106.61133h360.13282v-106.61133h-332.05664z"/>
</svg>

<svg xmlns="http://www.w3.org/2000/svg" viewBox="0 0 512 512"><path fill="#f55750" d="M0-.002v106.617h169.305L197.38-.002zm286.7 0-28.077 106.617H512V-.002zM0 202.693v106.612h115.926l28.076-106.612zm233.322 0-28.076 106.612H512V202.693zM0 405.387v106.611h62.545l28.08-106.611zm179.941 0-28.076 106.611h360.133V405.387z" data-iconColor="Serverless"/></svg>
